assets/images/icons/src/folder-open.svg

<?xml version="1.0" encoding="utf-8"?>
<!-- Generated by IcoMoon.io -->
<!DOCTYPE svg PUBLIC "-//W3C//DTD SVG 1.1//EN" "http://www.w3.org/Graphics/SVG/1.1/DTD/svg11.dtd">
<svg version="1.1" xmlns="http://www.w3.org/2000/svg" xmlns:xlink="http://www.w3.org/1999/xlink" width="15" height="14" viewBox="0 0 15 14">
<path fill="#444444" d="M14.68 7.438q0 0.242-0.242 0.516l-2.625 3.094q-0.336 0.398-0.941 0.676t-1.121 0.277h-8.5q-0.266 0-0.473-0.102t-0.207-0.336q0-0.242 0.242-0.516l2.625-3.094q0.336-0.398 0.941-0.676t1.121-0.277h8.5q0.266 0 0.473 0.102t0.207 0.336zM12 4.75v1.25h-6.5q-0.734 0-1.539 0.371t-1.281 0.934l-2.672 3.141q0-0.031-0.004-0.098t-0.004-0.098v-7.5q0-0.719 0.516-1.234t1.234-0.516h2.5q0.719 0 1.234 0.516t0.516 1.234v0.25h4.25q0.719 0 1.234 0.516t0.516 1.234z"></path>
</svg>

<svg xmlns="http://www.w3.org/2000/svg" width="15" height="14" viewBox="0 0 15 14"><path fill="#444" d="M14.68 7.438q0 .242-.242.516l-2.625 3.094q-.336.398-.941.676t-1.121.277h-8.5q-.266 0-.473-.102t-.207-.336q0-.242.242-.516l2.625-3.094q.336-.398.941-.676T5.5 7H14q.266 0 .473.102t.207.336zM12 4.75V6H5.5q-.734 0-1.539.371t-1.281.934L.008 10.446q0-.031-.004-.098T0 10.25v-7.5q0-.719.516-1.234T1.75 1h2.5q.719 0 1.234.516T6 2.75V3h4.25q.719 0 1.234.516T12 4.75z"/></svg>
